X: 4
T:Davy Lowston
M:4/4
L:1/8
Q:70
K:D
AA|"D"d>d dd dd "A"ce|"D"d2"A"cB "D"A3A|
f>f ff ff "G7"eg|"D"f6df|!
aa aa "Bm"a2 ef|"G"gf ed"A"c2dc|
"Bm"B4z2dc|"G"B4z2BA|"A"A4z2:||
